!!!OTL: Mount Your Baggage 
!!!id: HA042
**kern
*clefF4
*k[]
*C:
*M3/2
{4e
=1
4c
4e
2g}
{4c
4g
=2
8a
8g
8f
8e
4f
2d}
{4e
=3
4.c
8e
4.g}
{8g
4e
4g
=4
4a
4cc
4g
2e}
{8.cc
16dd
=5
8ee
8dd
8cc
8b
2cc}
{4c
4g
=6
8a
8g
8f
8e
4f
2d}
{8.cc
16dd
=7
8ee
8dd
8cc
8b
4.cc}
{8cc
4e
4g
=8
4a
4cc
4g
2e}
{8cc
8dd
=9
8ee
8dd
8cc
8b
2cc}
{4c
4g
=10
8a
8g
8f
8e
4f
2d}
{8.e
16d
=11
4c
4e
4.g}
{8g
4e
4cc
=12
4.b
8a
4g
2e}
==
*-
!!!minrhy: 16
!!!meter: 3/2 
!!!cut: Mount Your Baggage 
!!!key: HA042  16  C 3/2 
!!!fog: a--b--av-c--d--b--d--cv-dv-b--av'-cw-
!! Haydn: Volksliedbearbeitungen, Bd1
